images/icons/basket+.svg

<?xml version="1.0" encoding="UTF-8"?>
<!DOCTYPE svg PUBLIC "-//W3C//DTD SVG 1.1//EN" "http://www.w3.org/Graphics/SVG/1.1/DTD/svg11.dtd">
<!-- Creator: CorelDRAW 2018 (64-Bit) -->
<svg xmlns="http://www.w3.org/2000/svg" xml:space="preserve" width="3.4627mm" height="3.6521mm" version="1.1" style="shape-rendering:geometricPrecision; text-rendering:geometricPrecision; image-rendering:optimizeQuality; fill-rule:evenodd; clip-rule:evenodd"
viewBox="0 0 10.05 10.6"
 xmlns:xlink="http://www.w3.org/1999/xlink">
 <defs>
  <style type="text/css">
   <![CDATA[
    .str0 {stroke:#CD0017;stroke-width:0.29;stroke-miterlimit:22.9256}
    .fil1 {fill:#FEFEFE}
    .fil0 {fill:#767676}
   ]]>
  </style>
 </defs>
 <g id="Layer_x0020_1">
  <metadata id="CorelCorpID_0Corel-Layer"/>
  <path class="fil0" d="M9.91 1.46l-0.08 0.01 -0.01 -0.01 -6.13 0 -0.29 -1.27 0 -0.03c0,-0.09 -0.07,-0.16 -0.16,-0.16l-0.95 0c-0.09,0 -0.16,0.07 -0.16,0.16 0,0.09 0.07,0.16 0.16,0.16l0.81 0 1.26 5.54 -0.07 0.05c-0.2,0.13 -0.32,0.35 -0.32,0.59 0,0.39 0.32,0.71 0.71,0.71 0.39,0 0.71,-0.32 0.71,-0.71 0,-0.08 -0.01,-0.15 -0.04,-0.22l-0.06 -0.17 2.55 0 -0.06 0.17c-0.02,0.07 -0.04,0.15 -0.04,0.22 0,0.39 0.32,0.71 0.71,0.71 0.39,0 0.71,-0.32 0.71,-0.71 0,-0.39 -0.32,-0.71 -0.71,-0.71l-3.79 0 -0.13 -0.56 4.7 0c0.02,0 0.04,-0 0.08,-0.02 0.01,-0 0.02,-0.01 0.04,-0.04 0.01,-0.01 0.01,-0.02 0.02,-0.03 0,-0.01 0.01,-0.02 0.01,-0.03l0.01 -0.02 0 0 0.65 -3.45 -0 -0.04 -0.01 -0.03c-0,-0.01 -0.01,-0.02 -0.01,-0.03 -0,-0.01 -0.01,-0.02 -0.02,-0.02 -0.01,-0.01 -0.01,-0.01 -0.02,-0.02 -0.01,-0.01 -0.01,-0.01 -0.02,-0.01 -0.01,-0 -0.02,-0.01 -0.03,-0.01l-0.02 -0.01zm-4.84 5.03c0,0.21 -0.18,0.39 -0.39,0.39 -0.21,0 -0.39,-0.17 -0.39,-0.39 0,-0.21 0.17,-0.39 0.39,-0.39 0.21,0 0.39,0.17 0.39,0.39zm3.78 0c0,0.21 -0.18,0.39 -0.39,0.39 -0.21,0 -0.39,-0.17 -0.39,-0.39 0,-0.21 0.17,-0.39 0.39,-0.39 0.21,0 0.39,0.17 0.39,0.39zm0.58 -3.31l-1.44 0 0.17 -1.41 1.54 0 -0.26 1.41zm-0.32 1.72l-1.32 0 0.17 -1.41 1.42 0 -0.26 1.41zm-1.48 -1.41l-0.17 1.41 -1.35 0 -0.14 -1.41 1.66 0zm-1.69 -0.32l-0.14 -1.41 2.03 0 -0.17 1.41 -1.72 0zm-0.46 -1.41l0.14 1.41 -1.55 0 -0.32 -1.41 1.73 0zm-1.34 1.72l1.51 0 0.14 1.41 -1.33 0 -0.32 -1.41z"/>
  <circle class="fil1" cx="3.47" cy="7.12" r="3.47"/>
  <circle class="fil1 str0" cx="3.47" cy="7.12" r="2.61"/>
 </g>
</svg>

<svg xmlns="http://www.w3.org/2000/svg" width="13.087" height="13.803" viewBox="0 0 10.05 10.6" shape-rendering="geometricPrecision" text-rendering="geometricPrecision" image-rendering="optimizeQuality" fill-rule="evenodd" clip-rule="evenodd"><defs><style>.fil1{fill:#fefefe}</style></defs><g id="Layer_x0020_1"><path d="M9.91 1.46l-.08.01-.01-.01H3.69L3.4.19V.16C3.4.07 3.33 0 3.24 0h-.95c-.09 0-.16.07-.16.16s.07.16.16.16h.81l1.26 5.54-.07.05a.7.7 0 00-.32.59c0 .39.32.71.71.71.39 0 .71-.32.71-.71 0-.08-.01-.15-.04-.22l-.06-.17h2.55l-.06.17a.85.85 0 00-.04.22c0 .39.32.71.71.71.39 0 .71-.32.71-.71 0-.39-.32-.71-.71-.71H4.66l-.13-.56h4.7c.02 0 .04 0 .08-.02.01 0 .02-.01.04-.04.01-.01.01-.02.02-.03 0-.01.01-.02.01-.03l.01-.02.65-3.45V1.6l-.01-.03c0-.01-.01-.02-.01-.03 0-.01-.01-.02-.02-.02l-.02-.02c-.01-.01-.01-.01-.02-.01s-.02-.01-.03-.01l-.02-.01zM5.07 6.49c0 .21-.18.39-.39.39a.39.39 0 11.39-.39zm3.78 0c0 .21-.18.39-.39.39a.39.39 0 11.39-.39zm.58-3.31H7.99l.17-1.41H9.7l-.26 1.41zM9.11 4.9H7.79l.17-1.41h1.42L9.12 4.9zM7.63 3.49L7.46 4.9H6.11l-.14-1.41h1.66zm-1.69-.32L5.8 1.76h2.03l-.17 1.41H5.94zm-.46-1.41l.14 1.41H4.07l-.32-1.41h1.73zM4.14 3.48h1.51l.14 1.41H4.46l-.32-1.41z" fill="#767676"/><circle class="fil1" cx="3.47" cy="7.12" r="3.47"/><circle class="fil1" cx="3.47" cy="7.12" r="2.61" stroke="#cd0017" stroke-width=".29" stroke-miterlimit="22.926"/></g></svg>
